X:1
T:Cantique de Noël
T:Musique: Adolphe-Charles Adam.
T:Poème: Placide Cappeau (1847)
T:Cantique de Noël
T:(Minuit, Chrétiens!)
T:Remarks: Two other traditional strophes are included in this digital partition (2009), and also the last verse is the same for all strophes, to retain the Carol popular theme diffused today (It could also be: O night O holy night O night divine). Anyway, all refrains are often replaced by the first one
T:Remarks: Two other traditional strophes are included in this digital partition (2009), and also the last verse is the same for all strophes, to retain the Carol popular theme diffused today (It could also be: O night O holy night O night divine). Anyway, all refrains are often replaced by the first one
T:Remarks: Two other traditional strophes are included in this digital partition (2009), and also the last verse is the same for all strophes, to retain the Carol popular theme diffused today (It could also be: O night O holy night O night divine). Anyway, all refrains are often replaced by the first one
T:Remarks: Two other traditional strophes are included in this digital partition (2009), and also the last verse is the same for all strophes, to retain the Carol popular theme diffused today (It could also be: O night O holy night O night divine). Anyway, all refrains are often replaced by the first one
T:Remarks: Two other traditional strophes are included in this digital partition (2009), and also the last verse is the same for all strophes, to retain the Carol popular theme diffused today (It could also be: O night O holy night O night divine). Anyway, all refrains are often replaced by the first one
T:Remarks: Two other traditional strophes are included in this digital partition (2009), and also the last verse is the same for all strophes, to retain the Carol popular theme diffused today (It could also be: O night O holy night O night divine). Anyway, all refrains are often replaced by the first one
T:Remarks: Two other traditional strophes are included in this digital partition (2009), and also the last verse is the same for all strophes, to retain the Carol popular theme diffused today (It could also be: O night O holy night O night divine). Anyway, all refrains are often replaced by the first one
T:Remarks: Two other traditional strophes are included in this digital partition (2009), and also the last verse is the same for all strophes, to retain the Carol popular theme diffused today (It could also be: O night O holy night O night divine). Anyway, all refrains are often replaced by the first one
T:Remarks: Two other traditional strophes are included in this digital partition (2009), and also the last verse is the same for all strophes, to retain the Carol popular theme diffused today (It could also be: O night O holy night O night divine). Anyway, all refrains are often replaced by the first one
T:Remarks: Two other traditional strophes are included in this digital partition (2009), and also the last verse is the same for all strophes, to retain the Carol popular theme diffused today (It could also be: O night O holy night O night divine). Anyway, all refrains are often replaced by the first one
T:Remarks: Two other traditional strophes are included in this digital partition (2009), and also the last verse is the same for all strophes, to retain the Carol popular theme diffused today (It could also be: O night O holy night O night divine). Anyway, all refrains are often replaced by the first one
T:Remarks: Two other traditional strophes are included in this digital partition (2009), and also the last verse is the same for all strophes, to retain the Carol popular theme diffused today (It could also be: O night O holy night O night divine). Anyway, all refrains are often replaced by the first one
T:Remarks: Two other traditional strophes are included in this digital partition (2009), and also the last verse is the same for all strophes, to retain the Carol popular theme diffused today (It could also be: O night O holy night O night divine). Anyway, all refrains are often replaced by the first one
T:Remarks: Two other traditional strophes are included in this digital partition (2009), and also the last verse is the same for all strophes, to retain the Carol popular theme diffused today (It could also be: O night O holy night O night divine). Anyway, all refrains are often replaced by the first one
T:Remarks: Two other traditional strophes are included in this digital partition (2009), and also the last verse is the same for all strophes, to retain the Carol popular theme diffused today (It could also be: O night O holy night O night divine). Anyway, all refrains are often replaced by the first one
T:Remarks: Two other traditional strophes are included in this digital partition (2009), and also the last verse is the same for all strophes, to retain the Carol popular theme diffused today (It could also be: O night O holy night O night divine). Anyway, all refrains are often replaced by the first one
T:Remarks: Two other traditional strophes are included in this digital partition (2009), and also the last verse is the same for all strophes, to retain the Carol popular theme diffused today (It could also be: O night O holy night O night divine). Anyway, all refrains are often replaced by the first one
T:Remarks: Two other traditional strophes are included in this digital partition (2009), and also the last verse is the same for all strophes, to retain the Carol popular theme diffused today (It could also be: O night O holy night O night divine). Anyway, all refrains are often replaced by the first one
T:Remarks: Two other traditional strophes are included in this digital partition (2009), and also the last verse is the same for all strophes, to retain the Carol popular theme diffused today (It could also be: O night O holy night O night divine). Anyway, all refrains are often replaced by the first one
T:Remarks: Two other traditional strophes are included in this digital partition (2009), and also the last verse is the same for all strophes, to retain the Carol popular theme diffused today (It could also be: O night O holy night O night divine). Anyway, all refrains are often replaced by the first one
T:Remarks: Two other traditional strophes are included in this digital partition (2009), and also the last verse is the same for all strophes, to retain the Carol popular theme diffused today (It could also be: O night O holy night O night divine). Anyway, all refrains are often replaced by the first one
T:Remarks: Two other traditional strophes are included in this digital partition (2009), and also the last verse is the same for all strophes, to retain the Carol popular theme diffused today (It could also be: O night O holy night O night divine). Anyway, all refrains are often replaced by the first one
C:Musique: Adolphe-Charles Adam.
Z:Poème: Placide Cappeau (1847)
Z:Remarks: Two other traditional strophes are included in this digital
Z:partition (2009), and also the last verse is the same for all strophes,
Z:to retain the Carol popular theme diffused today (It could also be: O night O
Z:holy night O night divine). Anyway, all refrains are often replaced by the first one
%%score 1 [ ( 2 3 4 ) ( 5 6 ) ] { ( 7 11 12 ) | ( 8 9 10 ) }
L:1/8
Q:1/4=65
M:4/4
K:Eb
V:1 treble nm="MusicXML Part"
V:2 treble nm="MusicXML Part"
V:3 treble 
V:4 treble 
V:5 bass nm="MusicXML Part"
V:6 bass 
V:7 treble nm="MusicXML Part"
V:11 treble 
V:12 treble 
V:8 bass 
V:9 bass 
V:10 bass 
V:1
"^Larghetto" z8 |"^Solo de Soprano ou Ténor, ou en alternance." z2 z2 G2 G>G | B2- B>B c>c A>c | %3
w: |1.Mi- nuit, Chré-|tiens, _ c'est l'heu- re so- len-|
w: |2.De no- tre|foi _ que la lu- miè- *|
w: |3.Le Ré- demp-|teur _ a bri- sé tou- *|
 e4 B z/ B/ G>F | E2 G>A B2 A>F | E4 z4 | z4 G2 G>G | B2- B>B c>c A>c | e4 B z/ B/ =A>G | %9
w: nel- le, Où l'Hom- me-|Dieu des- cen- dit- jus qu'à|nous|Pour ef- fa-|cer _ la ta- * ri- gi-|nel- le Et de Son|
w: den- te Nous gui- de|tous au ber- ceau de l'En-|fant,|Com- * tre-|fois _ u- * toi- le bril-|lan- te Y con- dui-|
w: tra- ve: La- Ter- *|li- * le Ciel est ou-|vert!|Il voit un|frè _ _ n'é- tait qu'un es-|cla- ve, L'a- mour u-|
 d2 (B>c) d->d{/f} e>d | G4 z2 z3/2!pp! B/ | B2 c2 F2 B2 | c>B e>G c2 B z/ B/ | B2 c2 F2 B2 | %14
w: Père ar- rê- ter _ le cour-|roux. Le|mon- * tier tres-|sail- le d'es- pé- ran- ce À|cet- te nuit qui|
w: sit les trois chefs _ d'O- ri-|ent. Le|Roi des rois naît|dans une hum- ble crè- che: Puis-|sants du jour, fiers|
w: nit ceux qu'en- chaî- * nait le|fer. Qui|Lui di- ra no-|tre re- con- nais- san- ce? C'est|pour nous tous qu'il|
 c>B e>G B2- B z |!f!"^Solo." !>!e4- e2 d>c | d4- d2 z3/2 d/ | (f4 f>)c c>c | e4 e2 z3/2 e/ | %19
w: lui don- * Sau- veur. _|Peu _ _ ge-|noux! _ At-|tends _ ta dé- li-|vran- ce! No-|
w: de vo- tre gran- deur, _|À _ vo- *|gueil, _ c'est|de lá que Di- eu|prê- che. Cour-|
w: naît, qu'il souf- * meurt. _|Peu _ ple, de-|bout!- _ _|Chan- te ta dé- li-|vran- ce! No-|
 (g4 f7/2) B/ | e6 d>c | B4- B>B{/d} c>B | B6 z3/2 e/ | f4- f7/2 B/ | g6!>)!!>(! f2 | %25
w: ël! _ No-|ël! Voi- *|ci _ le Ré- demp-|teur! No-|ël! _ No-|ël! Oh|
w: bez _ vos|fronts de- *|vant _ le Ré- demp-|teur! No-|ël! _ No-|ël! Oh|
w: ël! _ No-|ël! Chan- *|tons _ le Ré- demp-|teur! No-|ël! _ No-|ël! Oh|
 e3- e"^poco rit." d2 e>f | e4"^a tempo" z4 | z8 | z8 | z8 | z8 | z8 | z8 | z8 | z8 | z8 | z8 | %37
w: nuit _ Oh nuit di-|vine!|||||||||||
w: nuit _ Oh nuit di-|vine!|||||||||||
w: nuit _ Oh nuit di-|vine!|||||||||||
 z8 | z8 | z8 | z8 | z8 | z8 :| z8 |] %44
w: |||||||
w: |||||||
w: |||||||
V:2
 z8 | z8 | z8 | z8 | z8 | z8 | z8 | z8 | z8 | z8 | z8 | z8 | z8 | z8 | z8 | z8 |!pp! G4 G2 G2 | %17
w: ||||||||||||||||Peu- * ge-|
w: ||||||||||||||||À vo- *|
w: ||||||||||||||||Peu- ple, de-|
 A6 z3/2 A/ | G3 G G2 G2 | B4 B2 B2 |"^dim." (B2 E4) F2 | G2 E2 A2 F2 | G4 z4 | %23
w: noux! At-|tends ta dé- li-|vran- ce! No-|ël! _ Voi-|ci le Ré- demp-|teur!|
w: gueil, c'est|de- là que Dieu|prê- che. Cour-|bez _ de-|vant le Ré- demp-|teur!|
w: bout! Chan-|te ta dé- li-|vran- ce! No-|ël! _ Chan-|tons le Ré- demp-|teur!|
 z2!p!!<(! F2 B2!<)! d2 | (e2 B4)!>)!!>(! A2 | (G4!pp! A7/2) A/ | G4 z4 |!f!"^Chorus." e4- e2 d>c | %28
w: No- ël! No-|ël!- * *|nuit _ di-|vine!|Peu- _ _ ge-|
w: No- ël! No-|ël! * *|nuit _ di-|vine!|À- _ vo- *|
w: No- ël! No-|ël! * *|nuit _ di-|vine!|Peu _ ple, de|
 d4- d2 z3/2 d/ | (f4 f>)c c>c | e4 e2 z z/ e/ | (g4 f7/2) B/ | e4- e2 d>c | B4- B>B{/d} c>B | %34
w: noux! _ At-|tends _ ta dé- li-|vran- ce! No-|ël! _ No-|ël! _ Voi- *|ci _ le Ré- demp-|
w: gueil, _ c'est|de là que Di- eu|prê- che. Cour-|bez _ vos|fronts _ de- *|vant _ le Ré- demp-|
w: bout!- _ _|Chan- te ta dé- li-|vran- ce! No-|ël _ No-|ël _ Chan- *|tons _ le Ré- demp-|
 B6"^cresc." z z/ e/ | f4- f7/2 B/ |"^*" b4-"^dim." ba g>f | e3 e"^rit.""^rit.""^rit." (d2 e>)f | %38
w: teur! No-|ël! _ No-|* * * Oh _|nuit oh nuit _ di-|
w: teur! No-|ël! _ No-|* * * Oh _|nuit oh nuit _ di-|
w: teur! No-|ël! _ No-|* * * Oh _|nuit oh nuit _ di-|
 e4"^a tempo. Gt. sans Palettes." z4 | z8 | z8 | z8 | z8 :| z8 |] %44
w: vine!||||||
w: vine!||||||
w: vine!||||||
V:3
 x8 | x8 | x8 | x8 | x8 | x8 | x8 | x8 | x8 | x8 | x8 | x8 | x8 | x8 | x8 | x8 | D4 D2 D2 | %17
w: |||||||||||||||||
w: |||||||||||||||||
w: |||||||||||||||||
 F6 z3/2 F/ | E3 E E2 E2 | E4 D2 D2 | E6 E2 | E2 E2 D2 D2 | E4 z4 | z2 D2 F2 F2 | E4 (=E2 F2) | %25
w: |||||||* Oh *|
w: |||||||* Oh *|
w: |||||||* Oh *|
 (_E4 F7/2) F/ | E4 z4 | G4- G2 G>G | G4- G2 z3/2 G/ | (A4 A>)A A>A | x8 | !>!B4 B7/2 B/ | %32
w: |||||||
w: |||||||
w: |||||||
 (B2 E4) F2 | (G4 A>)A A>A | G6 z z/ G/ | B4- B7/2 B/ | (B4 c2) A2 | G3 G A2- A>A | G4 z4 | x8 | %40
w: ||||||||
w: ||||||||
w: ||||||||
 x8 | x8 | x8 :| x8 |] %44
w: ||||
w: ||||
w: ||||
V:4
 x8 | x8 | x8 | x8 | x8 | x8 | x8 | x8 | x8 | x8 | x8 | x8 | x8 | x8 | x8 | x8 | x8 | x8 | x8 | %19
w: |||||||||||||||||||
w: |||||||||||||||||||
w: |||||||||||||||||||
 x8 | x8 | x8 | x8 | x8 | x8 | x8 | x8 | x8 | x8 | x8 | G4 G2 x2 | x8 | x8 | x8 | x8 | x8 | %36
w: |||||||||||||||||
w: |||||||||||||||||
w: |||||||||||||||||
 g4 f2 x2 | x8 | x8 | x8 | x8 | x8 | x8 :| x8 |] %44
w: ël! *||||||||
w: ël! *||||||||
w: ël! *||||||||
V:5
 z8 | z8 | z8 | z8 | z8 | z8 | z8 | z8 | z8 | z8 | z8 | z8 | z8 | z8 | z8 | z8 |!pp! B,4 B,2 B,2 | %17
w: ||||||||||||||||Peu- * ge-|
w: ||||||||||||||||À vo- *|
w: ||||||||||||||||Peu- ple, de-|
 C6 z3/2 C/ | C3 C C2 G,2 | G,4 B,2 B,2 |"^dim." (B,4 C2) A,2 | G,2 B,2 B,2 A,2 | B,4 z4 | %23
w: noux! At-|tends ta dé- li-|vran- ce! No-|ël! _ Voi-|ci le Ré- demp-|teur!|
w: gueil, c'est|de lá que Dieu|prê- che. Cour-|bez _ de|vant le Ré- demp-|teur!|
w: bout! Chan-|te ta dé- li-|vran- ce! No-|ël! _ Chan-|tons le Ré- demp-|teur!|
 z2!p! D2 D2 B,2 | B,4!>)!!>(! C2- C2 | B,4- B,7/2!pp! B,/ | B,4 z4 |!f! E6 C>G, | %28
w: No- ël! No-|ël! Oh _|nuit _ di-|vine!|Peu * ge-|
w: No ël! No-|ël! Oh _|nuit _ di-|vine!|À vo *|
w: No- ël! No-|ël! Oh _|nuit _ di-|vine|Peu- ple, de-|
 B,4- B,2 z3/2 B,/ | (C4 C>)C C>C | C4 C2 E2 | (E4 D7/2) D/ | (E2 B,2 C2) E2 | (E2 B,7/2) B,/ D>D | %34
w: roux! _ At-|tends _ ta dé- li-|vran- ce! No-|ël _ No-|ël! _ _ Voi-|ci _ le Ré- demp-|
w: gueil, _ c'est|de là que Di- eu|prê- che. Cour-|bez _ vos|fronts _ _ de-|vant _ le Ré- demp-|
w: bout!- _ _|Chan- te ta dé- li-|vran- ce! No-|ël! * No-|ël _ _ Chan-|tons _ le Ré- demp-|
 E6 z z/ E/ | D4- D7/2 D/ | (E4 C2) C2 | E3 E (F2 E>)D | E4 z4 | z8 | z8 | z8 | z8 :| z8 |] %44
w: teur!- *|* * No-|ël! _ Oh|nuit oh nuit _ di-|vine!||||||
w: teur! *|* * No-|ël! _ Oh|nuit oh nuit _ di-|vine!||||||
w: teur! *|* * No-|ël! _ Oh|nuit oh nuit _ di-|vine!||||||
V:6
 x8 | x8 | x8 | x8 | x8 | x8 | x8 | x8 | x8 | x8 | x8 | x8 | x8 | x8 | x8 | x8 | G,4 G,2 G,2 | %17
w: |||||||||||||||||
w: |||||||||||||||||
w: |||||||||||||||||
 F,6 z3/2 F,/ | C,3 C, C,2 C,2 | B,,4 A,,2 A,,2 | (G,,4 A,,2) A,,2 | B,,2 G,2 F,2 B,,2 | %22
w: |||||
w: |||||
w: |||||
 [E,G,]4 z4 | z2 B,2 A,2 A,2 | G,4 (A,2 A,,2) | B,,4- B,,7/2 B,,/ | E,4 z4 | C6 C,>E, | %28
w: ||||||
w: ||||||
w: ||||||
 G,4- G,2 z3/2 G,/ | (F,4 F,>)F, F,>F, | (C,2 E,2) G,2 C2 | (B,4 A,7/2) A,/ | (G,4 A,2) A,,2 | %33
w: |||||
w: |||||
w: |||||
 B,,2 G,2 F,2 B,,2 | E,4 G,2 B,2- | (B,4 A,7/2) A,/ | (G,4 A,2) A,2 | %37
w: |* No- ël!|_ _ _||
w: |* No- ël!|_ _ _||
w: |* No- ël!|_ _ _||
 B,3 B, [B,,B,]2- [B,,B,]>[B,,B,] | [E,B,]4 z4 | x8 | x8 | x8 | x8 :| x8 |] %44
w: |||||||
w: |||||||
w: |||||||
V:7
!p!!8vb(! (3(G,,!8vb)!EB,(3GEB,) (3(G,EB,(3GEB,) | (3(G,EB,(3GEB,) (3(G,EB,(3GEB,) | %2
 (3(G,EB,(3GEB,) (3(A,EC(3AEC) | (3(G,EB,(3GEB,) (3(G,EB,(3GEB,) | %4
 (3(G,EB,(3GEB,) (3(A,DB,(3FDB,) | (3(G,EB,(3GEB,) (3(G,EB,(3GEB,) | %6
 (3(G,EB,(3GEB,) (3(G,EB,(3GEB,) | (3(G,EB,(3GEB,) (3(A,EC(3AEC) | %8
 (3(G,EB,(3GEB,)!<(! (3(G,^CB,(3GCB,)!<)! | (3(G,DB,(3GDB,) (3(=A,DC(3^FDC) | %10
!>(! (3(G,DB,(3GD!>)!B,)!pp! (3(G,DB,(3GDB,) | (3(_A,DB,(3FDB,) (3(A,DB,(3FDB,) | %12
 (3(G,EB,(3GEB,) (3(G,EB,(3GEB,) | (3(A,DB,(3FDB,) (3(A,DB,(3FDB,) | %14
 (3(G,EB,(3GEB,) (3(G,EB,(3GEB,) |!mf! (3(G,EC(3GEC) (3(G,EC(3GEC) | %16
 (3(G,DB,(3GDB,) (3(G,DB,(3GDB,) | (3(A,FC(3AFC) (3(A,FC(3AFC) | (3(G,EC(3GEC) (3(G,EC(3GEC) | %19
 (3(G,EB,(3GEB,) (3(A,DB,(3FDB,) |"^dim." (3(B,GE(3BGE) (3(A,EC(3AEC) | %21
 (3(G,EB,(3GEB,) (3(A,DB,(3FDB,) |"^cresc." (3(G,EB,(3GEB,) (3(G,EB,(3GEB,) | %23
 (3(F,DB,(3FDB,) (3(F,DB,(3FDB,) | (3(B,GE(3BGE) (3(A,FC(3AFC) | (3(G,EB,(3GEB,) [A,B,DF]2 z2 | %26
"^cresc." (3(G,EB,(3GEB,) (3(G,!mf!EB,(3GEB,) |!f! e4- e2 d>c | [DGBd]6 [DGBd]2 | %29
 [FAcf]4- [FAcf]>c c>c | [EGce]4- [Gce]2 z z/ e/ | [GBeg]4 [FBdf]4 | [Ee]6 d>c | B4- B>B{/d} c>B | %34
 [EGB-]6 B3/2 e/ |!<(! [df]6!<)! B2 | [GBeg]6 [Ff]2 | [GBe]4 [FABd]2 z2 | %38
 [EGBe]4 [EBe]2 [EBe]>[EBd] | [EAd]4 [FAc]2 [FAc]>[FAc] | [ABfa]4!>(! [GBeg]2!>)! [Acf]2 | %41
 [GBe]4{cde} (Td3 e/)f/ | .[Ge]2!<(! (3E gB!<)!!8va)!!8va(!!>(! (3eB!>)!G (3E[I:staff +1]B,G, :| %43
[I:staff -1] !fermata!E8 |] %44
V:8
!ped! [E,,E,G,B,]8 | [E,,E,G,B,]8 | [E,G,B,]4 x4 | [E,G,B,]4 [E,G,B,]4 | [B,,E,G,B,-]8 | %5
 [E,,B,,E,G,B,]8 | [E,,B,,E,G,B,]8 | [E,G,B,]4 [A,C]4 | [E,G,B,]4 [E,,E,]4 | [D,G,B,]4 [D,=A,C]4 | %10
 [G,,D,G,B,]4 z4 | [D,,F,_A,B,]8 | [E,,E,G,B,]8 | [D,,F,A,B,]8 | [E,G,B,]8 |{C,,G,,} [C,,C,]8 | %16
{C,,G,,} [G,,,G,,]8 |{F,,,C,,} [F,,,F,,]8 |{C,,G,,} [C,,C,]8 | [B,,,B,,]4 [A,,,A,,]4 | %20
 [G,,,G,,]4 [A,,,A,,]4 | [B,,,B,,]4 [B,,,B,,]4 | %22
 !>![E,,,E,,]2 !>![G,,,G,,]2 !>![B,,,B,,]2 !>![E,,E,]2 | [B,,,B,,]4 [A,,,A,,]4 | %24
 [G,,,G,,]4 [A,,,A,,]4 | [B,,,B,,]4 [B,,,B,,]2 z2 | [E,,B,,E,]4 E,2 D,2 | %27
 (3(C,G,E,(3CG,E,) (3(C,G,E,(3CG,E,) | (3(B,,G,D,(3B,G,D,) (3(B,,G,D,(3B,G,D,) | %29
 (3(F,,A,F,(3CA,F,) (3(F,,A,F,(3CA,F,) | (3(C,G,E,(3CG,E,) (3(C,G,E,(3CG,E,) | %31
 (3(B,,B,G,(3EG,E,) (3(A,,B,F,(3DB,F,) | (3(A,,G,E,(3B,G,E,) (3(A,,A,E,(3CA,E,) | %33
 (3B,,G,E,(3B,G,E, (3(B,,A,F,(3B,A,F,) | (6:4:6E,,G,E,B,G,E, (6:4:6(G,,G,E,B,G,E,) | %35
 B,2 z2 z2 (3DB,D | (6:4:6(G,B,G,EB,G,) (6:4:6z (A,F,CA,F,) | (6:4:6(B,,B,G,EB,G,) B,2 z2 | %38
 (6:4:6z (B,,E,G,B,G,) (6:4:6z (E,G,B,G,B,) | (6:4:6z (E,A,CA,E,) (6:4:6z (F,A,CA,F,) | %40
 (3B,, (F,B, (3DB,F,) (3E,B,E(3A,CF | (3B,,G,B,(3EB,G, (3(B,,F,B,(3DB,F,) | %42
!8va(! (3z!8va)! G, B, [G,B,]2- [G,B,]2 z2 :| !fermata![E,,E,G,B,]8 |] %44
V:9
 x8 | x8 | E,,4 [A,,E,A,]4 | E,,4 G,,4 | x8 | x8 | x8 | E,,4 A,,4 | E,,4 x4 | D,,4 D,,4 | x8 | x8 | %12
 x8 | x8 | E,,4- E,,2 x2 | x8 | x8 | x8 | x8 | x8 | x8 | x8 | x8 | x8 | x8 | x8 | x8 | x8 | x8 | %29
 x8 | x8 | x8 | x8 | x8 | x8 | x8 | x8 | x8 | x8 | x8 | B,,2 x6 | x8 | %42
!8va(! x2/3!8va)! G,2 x16/3 :| x8 |] %44
V:10
 x8 | x8 | x8 | x8 | x8 | x8 | x8 | x8 | x8 | x8 | x8 | D,2 B,,2 D,2 B,,2 | (E,2 B,,2 E,2 B,,2) | %13
 D,2 B,,2 D,2 B,,2 | (E,2 B,,2 E,2) z2 | x8 | x8 | x8 | x8 | x8 | x8 | x8 | x8 | x8 | x8 | x8 | %26
 x8 | C,2 x2 C,2 x2 | B,,2 x2 B,,2 x2 | F,,2 x2 F,,2 x2 | C,2 x2 C,2 x2 | B,,2 x2 A,,2 x2 | %32
 A,,2 x2 A,,2 x2 | B,,2 x2 B,,2 x2 | E,,2 G,,2 G,,2 E,2 | B,,2 A,,4 A,2 | [G,,G,]2 x2 A,,4 | %37
 B,,2 z2 B,,2 z2 | E,,4 G,,4 | A,,4 F,,4 | D,,4 [E,,E,]2 [A,,A,]2 | B,,2 x2 B,,2 x2 | %42
!8va(! E,6-!8va)! E,,2 :| x8 |] %44
V:11
!8vb(! x2/3!8vb)! x22/3 | x8 | x8 | x8 | x8 | x8 | x8 | x8 | x8 | x8 | x8 | x8 | x8 | x8 | x8 | %15
 G,2 x2 G,2 x2 | G,2 x2 G,2 x2 | A,2 x2 A,2 x2 | G,2 x2 G,2 x2 | G,2 x2 A,2 x2 | B,2 x2 A,2 x2 | %21
 G,2 x2 A,2 x2 | G,2 x2 G,2 x2 | F,2 x2 F,2 x2 | B,2 x2 A,2 x2 | G,2 x6 | G,2 x2 G,2 x2 | [EG]8 | %28
 x8 | x8 | x8 | x8 | B4 c2 [EF]2 | [EG]4 [DA]4 | x8 | (3BFB (3FBF (3BFB B2 | x8 | x8 | x8 | x8 | %40
 x8 | x8 | x4!8va)!!8va(! x4 :| x8 |] %44
V:12
!8vb(! x2/3!8vb)! x22/3 | x8 | x8 | x8 | x8 | x8 | x8 | x8 | x8 | x8 | x8 | x8 | x8 | x8 | x8 | %15
 x8 | x8 | x8 | x8 | x8 | x8 | x8 | x8 | x8 | x8 | x8 | x8 | x8 | x8 | x8 | x6 z2 | x8 | x8 | x8 | %34
 x6 [EG]2 | x8 | x8 | x8 | x8 | x8 | x8 | x4 A4 | x2 E2-!8va)!!8va(! E2 x2 :| x8 |] %44

